!!!COM: Vivaldi, Antonio Lucio
!!!CDT: 1678/03/04-1741/08/28
!!!OPR: 12 sonatas for two violins and basso continuo
!!!OTL: Sonata in D minor, op. @{OPS}, no. @{ONM} (@{SCT})
!!!OPS: 1
!!!ONM: 8
!!!OMV: 4. Giga
!!!SCT: RV 64
!!!SCA: Antonio Vivaldi: Thematisch-systematisches Verzeichnis seiner Werke (Ryom-Verzeichnis)
!!!OMD: Allegro
!!!key: d
**kern	**dynam	**fb	**kern	**dynam	**kern	**dynam
*part3	*	*	*part2	*	*part1	*
*staff3	*	*	*staff2	*	*staff1	*
*ICstr&ICklav	*	*	*ICstr	*	*ICstr	*
*Icello&Icemba	*	*	*Ivioln	*	*Ivioln	*
*	*	*	*I#2	*	*I#1	*
*I"Violoncello\nContinuo	*	*	*I"Violin 2	*	*I"Violin 1	*
*I'bc	*	*	*I'v2	*	*I'v1	*
*>[A,A,B,B]	*>[A,A,B,B]	*>[A,A,B,B]	*>[A,A,B,B]	*>[A,A,B,B]	*>[A,A,B,B]	*>[A,A,B,B]
*>norep[A,B]	*>norep[A,B]	*>norep[A,B]	*>norep[A,B]	*>norep[A,B]	*>norep[A,B]	*>norep[A,B]
*>A	*>A	*>A	*>A	*>A	*>A	*>A
*clefF4	*	*	*clefG2	*	*clefG2	*
*k[b-]	*	*	*k[b-]	*	*k[b-]	*
*d:	*	*	*d:	*	*d:	*
*M12/8	*	*	*M12/8	*	*M12/8	*
*MM216	*	*	*MM216	*	*MM216	*
=1	=1	=1	=1	=1	=1	=1
1.r	.	.	8r	.	2.r	.
.	.	.	8aa\L	.	.	.
.	.	.	8gg\J	.	.	.
.	.	.	8ff\L	.	.	.
.	.	.	8ee\	.	.	.
.	.	.	8dd\J	.	.	.
.	.	.	4.cc#X\	.	8r	.
.	.	.	.	.	8aa\L	.
.	.	.	.	.	8gg\J	.
.	.	.	4.dd\	.	8ff\L	.
.	.	.	.	.	8ee\	.
.	.	.	.	.	8dd\J	.
=2	=2	=2	=2	=2	=2	=2
1.r	.	.	8ee\L	.	4.cc#X\	.
.	.	.	8a\	.	.	.
.	.	.	8ee\J	.	.	.
.	.	.	8ff\L	.	4.dd\	.
.	.	.	8ee\	.	.	.
.	.	.	8dd\J	.	.	.
.	.	.	4.cc#X\	.	8ee\L	.
.	.	.	.	.	8a\	.
.	.	.	.	.	8ee\J	.
.	.	.	4.dd\	.	8ff\L	.
.	.	.	.	.	8ee\	.
.	.	.	.	.	8dd\J	.
=3	=3	=3	=3	=3	=3	=3
2.r	.	.	8ee\L	.	4.cc#X\	.
.	.	.	8a\	.	.	.
.	.	.	8ee\J	.	.	.
.	.	.	8ff\L	.	4.dd\	.
.	.	.	8ee\	.	.	.
.	.	.	8dd\J	.	.	.
8r	.	.	4.cc#X\	.	4ee\	.
8A\L	.	#	.	.	.	.
8G\J	.	.	.	.	8a/	.
8F\L	.	6	4dd\	.	4aa\	.
8E\	.	.	.	.	.	.
8D\J	.	.	8ff\	.	8aa\	.
!!LO:LB:g=original
=4	=4	=4	=4	=4	=4	=4
8B-y\L	.	7	[4.dd\	.	4aa\	.
8BB-y\	.	.	.	.	.	.
8B-y\J	.	.	.	.	8dd\	.
8E\L	.	7	4dd\]	.	4gg\	.
8F\	.	.	.	.	.	.
8G\J	.	.	8ee\	.	8gg\	.
8A\L	.	7 #	4.cc#X\	.	4.gg\	.
8AA\	.	.	.	.	.	.
8A\J	.	.	.	.	.	.
8D\L	.	.	4.dd\	.	[4.ff\	.
8E\	.	.	.	.	.	.
8F\J	.	.	.	.	.	.
=5	=5	=5	=5	=5	=5	=5
8G/L	.	7	2.b-y\	.	4ff\]	.
8GG/	.	.	.	.	.	.
8G/J	.	.	.	.	8ee\	.
8C#X\L	.	7	.	.	4ee\	.
8D\	.	.	.	.	.	.
8E\J	.	.	.	.	8ee\	.
8F\L	.	7	4.a/	.	(4ee\	.
8G\	.	.	.	.	.	.
8A\J	.	#	.	.	8cc#X\)	.
4B-y\	.	.	8r	.	[4.dd\	.
.	.	.	8r	.	.	.
8A\	.	.	8ff\	.	.	.
=6	=6	=6	=6	=6	=6	=6
8G\L	.	6 5	2.ee\	.	4.dd\]	.
8F\	.	.	.	.	.	.
8E\J	.	.	.	.	.	.
4A\	.	#	.	.	4.cc#X\t	.
8AA/	.	.	.	.	.	.
4.D\	.	.	8dd\L	.	4.dd\	.
.	.	.	8a\	.	.	.
.	.	.	8dd\J	.	.	.
4.C#X/	.	6	8ee\L	.	4r	.
.	.	.	8a\	.	.	.
.	.	.	8ee\J	.	8r	.
=7	=7	=7	=7	=7	=7	=7
4.D\	.	.	4.ff\	.	8aa\L	.
.	.	.	.	.	8ff\	.
.	.	.	.	.	8ee\J	.
4.F\	.	6	4r	.	4dd\	.
.	.	.	8r	.	8aa\	.
4.G\	.	.	8dd\L	.	4.bb-y\	.
.	.	.	8b-y\	.	.	.
.	.	.	8a\J	.	.	.
4.BB-y/	.	6	4g/	.	8r	.
.	.	.	.	.	8r	.
.	.	.	8dd\	.	8gg\	.
=8	=8	=8	=8	=8	=8	=8
4.C/	.	.	4.ee\	.	8gg\L	.
.	.	.	.	.	8ee\	.
.	.	.	.	.	8gg\J	.
4.E\	.	6	8r	.	4cc\	.
.	.	.	8r	.	.	.
.	.	.	8cc\	.	8gg\	.
4.F\	.	.	8cc\L	.	[2.aa\	.
.	.	.	8a\	.	.	.
.	.	.	8cc\J	.	.	.
4.AA/	.	6	4f/	.	.	.
.	.	.	8cc\	.	.	.
!!LO:LB:g=original
=9	=9	=9	=9	=9	=9	=9
4.BB-y/	.	7	[2.dd\	.	8aa\L]	.
.	.	.	.	.	8ff\	.
.	.	.	.	.	8ee\J	.
4.B-y\	.	6	.	.	4dd\	.
.	.	.	.	.	8ff\	.
2.E\	.	7	8dd\L]	.	2.gg\	.
.	.	.	8b-y\	.	.	.
.	.	.	8a\J	.	.	.
.	.	.	4g/	.	.	.
.	.	.	8dd\	.	.	.
=10	=10	=10	=10	=10	=10	=10
[2.A\	.	#	4.cc#X\	.	8ee\L	.
.	.	.	.	.	8cc#X\	.
.	.	.	.	.	8ee\J	.
.	.	.	8r	.	4a/	.
.	.	.	8r	.	.	.
.	.	.	8cc#X\	.	8ee\	.
2.A\_	.	6 4	8dd/L	.	4.ff\	.
.	.	.	8a/	.	.	.
.	.	.	8f/J	.	.	.
.	.	.	4d/	.	8r	.
.	.	.	.	.	8r	.
.	.	.	8dd\	.	8ff\	.
=11	=11	=11	=11	=11	=11	=11
2.A\_	.	5 #	4.cc#X\	.	8ee\L	.
.	.	.	.	.	8cc#X\	.
.	.	.	.	.	8ee\J	.
.	.	.	8r	.	4a/	.
.	.	.	8r	.	.	.
.	.	.	8cc#X\	.	8ee\	.
2.A\_	.	6 4	8dd/L	.	4.ff\	.
.	.	.	8a/	.	.	.
.	.	.	8f/J	.	.	.
.	.	.	4d/	.	8r	.
.	.	.	.	.	8r	.
.	.	.	8dd\	.	8ff\	.
=12	=12	=12	=12	=12	=12	=12
2.A\]	.	5 #	2.cc#X\	.	4ee\	.
.	.	.	.	.	8cc#X\	.
.	.	.	.	.	4ee\	.
.	.	.	.	.	8a/	.
2.d\	.	.	2.a/	.	8ff\L	.
.	.	.	.	.	8dd\	.
.	.	.	.	.	8ff\J	.
.	.	.	.	.	4a/	.
.	.	.	.	.	8ff\	.
=13	=13	=13	=13	=13	=13	=13
2.B-y\	.	6	[4.dd\	.	8gg\L	.
.	.	.	.	.	8dd\	.
.	.	.	.	.	8gg\J	.
.	.	.	4dd\]	.	4b-y\	.
.	.	.	8ee\	.	8gg\	.
[2.A\	.	#	[2.cc#X\	.	8aa\L	.
.	.	.	.	.	8ee\	.
.	.	.	.	.	8aa\J	.
.	.	.	.	.	8cc#X\L	.
.	.	.	.	.	8ee\	.
.	.	.	.	.	8cc#y\J	.
!!LO:LB:g=original
=14	=14	=14	=14	=14	=14	=14
2.A\]	.	.	8cc#y/L]	.	[2.a/	.
.	.	.	8e/	.	.	.
.	.	.	8a/J	.	.	.
.	.	.	8c#X/L	.	.	.
.	.	.	8e/	.	.	.
.	.	.	8c#X/J	.	.	.
2.A\	.	.	2.A/	.	2.a/]	.
=15:|!|:	=15:|!|:	=15:|!|:	=15:|!|:	=15:|!|:	=15:|!|:	=15:|!|:
*>B	*>B	*>B	*>B	*>B	*>B	*>B
2.A\	.	#	2.r	.	8aa\L	.
.	.	.	.	.	8gg\	.
.	.	.	.	.	8aa\J	.
.	.	.	.	.	8ee\L	.
.	.	.	.	.	8aa\	.
.	.	.	.	.	8gg\J	.
2.d\	.	.	8dd\L	.	4.ff\	.
.	.	.	8cc\	.	.	.
.	.	.	8dd\J	.	.	.
.	.	.	8a\L	.	8r	.
.	.	.	8dd\	.	8r	.
.	.	.	8cc\J	.	8ff\	.
=16	=16	=16	=16	=16	=16	=16
2.G\	.	7	4.b-y\	.	8gg\L	.
.	.	.	.	.	8ff\	.
.	.	.	.	.	8gg\J	.
.	.	.	8r	.	8dd\L	.
.	.	.	8r	.	8ee\	.
.	.	.	8b-y\	.	8ff\J	.
2.C/	.	7	8cc\L	.	4.ee\	.
.	.	.	8b-y\	.	.	.
.	.	.	8cc\J	.	.	.
.	.	.	8g/L	.	4r	.
.	.	.	8a/	.	.	.
.	.	.	8b-y/J	.	8r	.
=17	=17	=17	=17	=17	=17	=17
2.F\	.	.	2.a/	.	8ff\L	.
.	.	.	.	.	8ee\	.
.	.	.	.	.	8ff\J	.
.	.	.	.	.	8cc\L	.
.	.	.	.	.	8dd\	.
.	.	.	.	.	8ee\J	.
2.GG#X/	.	5	2.bn\	.	4dd\	.
.	.	.	.	.	8ff\	.
.	.	6	.	.	4ee\	.
.	.	.	.	.	8dd\	.
=18	=18	=18	=18	=18	=18	=18
[4.AA/	.	5	4e/	.	8cc\L	.
.	.	.	.	.	8bn\	.
.	.	.	8ee\	.	8a\J	.
4AA/]	.	6	4.ff\	.	8aa\L	.
.	.	.	.	.	8gg\	.
8D\	.	.	.	.	8ff\J	.
4E\	.	7 #	4g#X/	.	8ee\L	.
.	.	.	.	.	8dd\	.
8AA/	.	.	8ee\	.	8cc\J	.
4E\	.	6 4	4cc\	.	4e/	.
8EE/	.	5 #	8bn\	.	8g#X/	.
!!LO:PB:g=original
=19	=19	=19	=19	=19	=19	=19
4.AA/	.	.	8a\L	.	4.a/	.
.	.	.	8ee\	.	.	.
.	.	.	8dd\J	.	.	.
4r	.	.	8cc#X\L	.	4r	.
.	.	.	8dd\	.	.	.
8r	.	.	8ee\J	.	8r	.
8c#X\L	.	6	[2.a/	.	8r	.
8A\	.	.	.	.	8r	.
8c#X\J	.	.	.	.	8ee\	.
8c#y\L	.	.	.	.	4aa\	.
8A\	.	.	.	.	.	.
8c#X\J	.	.	.	.	8ee\	.
=20	=20	=20	=20	=20	=20	=20
4.d\	.	.	2.a/_	.	8ff\L	.
.	.	.	.	.	8aa\	.
.	.	.	.	.	8gg\J	.
4.D\	.	.	.	.	8ff\L	.
.	.	.	.	.	8gg\	.
.	.	.	.	.	8aa\J	.
8F#X\L	.	6	4a/]	.	[2.dd\	.
8D\	.	.	.	.	.	.
8F#X\J	.	.	8a/	.	.	.
8F#y\L	.	.	4dd\	.	.	.
8D\	.	.	.	.	.	.
8F#X\J	.	.	8a/	.	.	.
=21	=21	=21	=21	=21	=21	=21
4.G\	.	n	8bn\L	.	2.dd\_	.
.	.	.	8dd\	.	.	.
.	.	.	8cc\J	.	.	.
4.GG/	.	.	8bn\L	.	.	.
.	.	.	8cc\	.	.	.
.	.	.	8dd\J	.	.	.
8Bn\L	.	6	[2.g/	.	4dd\]	.
8G\	.	.	.	.	.	.
8Bn\J	.	.	.	.	8dd\	.
8B\L	.	.	.	.	4gg\	.
8G\	.	.	.	.	.	.
8Bn\J	.	.	.	.	8dd\	.
=22	=22	=22	=22	=22	=22	=22
4.c\	.	.	2.g/_	.	8ee\L	.
.	.	.	.	.	8gg\	.
.	.	.	.	.	8ff\J	.
4.C/	.	.	.	.	8ee\L	.
.	.	.	.	.	8ff\	.
.	.	.	.	.	8gg\J	.
8E\L	.	6	4g/]	.	[2.cc\	.
8C\	.	.	.	.	.	.
8E\J	.	.	8g/	.	.	.
8E\L	.	.	4cc\	.	.	.
8C\	.	.	.	.	.	.
8E\J	.	.	8g/	.	.	.
!!LO:LB:g=original
=23	=23	=23	=23	=23	=23	=23
4.F\	.	.	8a/L	.	2.cc\_	.
.	.	.	8cc/	.	.	.
.	.	.	8b-y/J	.	.	.
4.FF/	.	.	8a/L	.	.	.
.	.	.	8b-y/	.	.	.
.	.	.	8cc/J	.	.	.
8A\L	.	6	4.f/	.	4cc\]	.
8AA\	.	.	.	.	.	.
8A\J	.	.	.	.	8cc\	.
8D\L	.	.	8r	.	4ff\	.
8E\	.	.	8r	.	.	.
8F\J	.	.	8dd\	.	8ff\	.
=24	=24	=24	=24	=24	=24	=24
8G/L	.	7 n	[4.bn\	.	4ff\	.
8GG/	.	.	.	.	.	.
8G/J	.	.	.	.	8ee\	.
8C\L	.	7	4b\]	.	[4.ee\	.
8D\	.	.	.	.	.	.
8E\J	.	.	8cc\	.	.	.
8F/L	.	7	2.a/	.	4ee\]	.
8FF/	.	.	.	.	.	.
8F/J	.	.	.	.	8dd\	.
8BBn/L	.	7	.	.	4dd\	.
8C/	.	.	.	.	.	.
8D/J	.	.	.	.	8dd\	.
=25	=25	=25	=25	=25	=25	=25
8E\L	.	7	4.g/	.	(4dd\	.
8F\	.	.	.	.	.	.
8G\J	.	n	.	.	8bn\)	.
4A\	.	.	8r	.	2.cc\	.
.	.	.	8r	.	.	.
8G\	.	.	8ee\	.	.	.
8F\L	.	6 5	2.dd\	.	.	.
8E\	.	.	.	.	.	.
8D\J	.	.	.	.	.	.
4G\	.	n	.	.	4.bn\t	.
8GG/	.	.	.	.	.	.
=26	=26	=26	=26	=26	=26	=26
8C/L	.	.	4.cc\	.	4.cc\	.
8C/	.	.	.	.	.	.
8D/J	.	.	.	.	.	.
8E/L	.	6	4r	.	[4.gg\	.
8D/	.	.	.	.	.	.
8C/J	.	.	8r	.	.	.
4.c\	.	.	4r	.	8gg\L]	.
.	.	.	.	.	8ee\	.
.	.	.	8r	.	8ff\J	.
4.C/	.	.	[4.cc\	.	8gg\L	.
.	.	.	.	.	8ff\	.
.	.	.	.	.	8ee\J	.
!!LO:LB:g=original
=27	=27	=27	=27	=27	=27	=27
8r	.	.	8cc\L]	.	4.dd\	.
8G\L	.	.	8b-y\	.	.	.
8A\J	.	.	8cc\J	.	.	.
8B-y\L	.	6	8dd\L	.	[4.gg\	.
8A\	.	.	8cc\	.	.	.
8G\J	.	.	8b-y\J	.	.	.
4.d\	.	5 4	4.a/	.	8gg\L]	.
.	.	.	.	.	8ff\	.
.	.	.	.	.	8gg\J	.
4.D\	.	3	8ff\L	.	8aa\L	.
.	.	.	8ee\	.	8gg\	.
.	.	.	8dd\J	.	8ff\J	.
=28	=28	=28	=28	=28	=28	=28
8r	.	.	4.cc#X\	.	4ee\	.
8A\L	.	#	.	.	.	.
8G\J	.	.	.	.	8a/	.
8F\L	.	6	4r	.	4r	.
8E\	.	.	.	.	.	.
8D\J	.	.	8r	.	8r	.
4.AA/	.	#	8r	.	2.r	.
.	.	.	8aa\L	.	.	.
.	.	.	8gg\J	.	.	.
4.D\	.	.	8ff\L	.	.	.
.	.	.	8ee\	.	.	.
.	.	.	8dd\J	.	.	.
=29	=29	=29	=29	=29	=29	=29
4.A\	.	#	4.cc#X\	.	8r	.
.	.	.	.	.	8aa\L	.
.	.	.	.	.	8gg\J	.
4.D\	.	.	4.dd\	.	8ff\L	.
.	.	.	.	.	8ee\	.
.	.	.	.	.	8dd\J	.
4.AA/	.	#	8ee\L	.	4.cc#X\	.
.	.	.	8a\	.	.	.
.	.	.	8ee\J	.	.	.
4.DD/	.	.	8ff\L	.	4.dd\	.
.	.	.	8ee\	.	.	.
.	.	.	8dd\J	.	.	.
=30	=30	=30	=30	=30	=30	=30
8r	.	.	4.cc#X\	.	4ee\	.
8A\L	.	#	.	.	.	.
8G\J	.	.	.	.	8a/	.
8F\L	.	6	4dd\	.	4aa\	.
8E\	.	.	.	.	.	.
8D\J	.	.	8ff\	.	8aa\	.
8B-y\L	.	7	[4.dd\	.	4aa\	.
8BB-y\	.	.	.	.	.	.
8B-y\J	.	.	.	.	8dd\	.
8E\L	.	7	4dd\]	.	4gg\	.
8F\	.	.	.	.	.	.
8G\J	.	.	8ee\	.	8gg\	.
!!LO:LB:g=original
=31	=31	=31	=31	=31	=31	=31
8A\L	.	7 #	4.cc#y\	.	4.gg\	.
8AA\	.	.	.	.	.	.
8A\J	.	.	.	.	.	.
8D\L	.	.	4.dd\	.	[4.ff\	.
8E\	.	.	.	.	.	.
8F\J	.	.	.	.	.	.
8G/L	.	7	2.b-y\	.	4ff\]	.
8GG/	.	.	.	.	.	.
8G/J	.	.	.	.	8ee\	.
8C#X/L	.	7	.	.	4ee\	.
8D/	.	.	.	.	.	.
8E/J	.	.	.	.	8ee\	.
=32	=32	=32	=32	=32	=32	=32
8F\L	.	7	4.a/	.	(4ee\	.
8G\	.	.	.	.	.	.
8A\J	.	#	.	.	8cc#X\)	.
4B-y\	.	.	8r	.	2.dd\	.
.	.	.	8r	.	.	.
8A\	.	.	8ff\	.	.	.
8G\L	.	6 5	2.ee\	.	.	.
8F\	.	.	.	.	.	.
8E\J	.	.	.	.	.	.
4A\	.	#	.	.	4.cc#X\t	.
8AA/	.	.	.	.	.	.
=33	=33	=33	=33	=33	=33	=33
4.D\	.	.	4.dd\	.	4.dd\	.
8d\L	p	6	8r	.	4b-y\	.
8c\	.	.	8r	.	.	.
8B-y\J	.	.	8f/	p	8b-y\	p
8c\L	.	7	[4.e/	.	4b-y\	.
8C\	.	.	.	.	.	.
8c\J	.	.	.	.	8a/	.
8F\L	.	7	4e/]	.	4a/	.
8G\	.	.	.	.	.	.
8A\J	.	.	8f/	.	8a/	.
=34	=34	=34	=34	=34	=34	=34
8B-y\L	.	7	[4.d/	.	4a/	.
8BB-y\	.	.	.	.	.	.
8B-y\J	.	.	.	.	8d/	.
8E\L	.	7	4d/]	.	[4.g/	.
8F\	.	.	.	.	.	.
8G\J	.	.	8e/	.	.	.
8A\L	.	7 #	4.c#X/	.	4g/]	.
8AA\	.	.	.	.	.	.
8A\J	.	.	.	.	8e/	.
8D\L	.	.	[4.d/	.	4.f/	.
8E\	.	.	.	.	.	.
8F\J	.	.	.	.	.	.
=35	=35	=35	=35	=35	=35	=35
8G\L	.	6 5	4.d/]	.	2.e/	.
8F\	.	.	.	.	.	.
8E\J	.	.	.	.	.	.
4A\	.	#	4.c#X/	.	.	.
8AA/	.	.	.	.	.	.
2.D\	.	.	2.d/	.	2.d/	.
=:|!	=:|!	=:|!	=:|!	=:|!	=:|!	=:|!
*-	*-	*-	*-	*-	*-	*-
!!!SMS: RV 64 / Estienne Roger (No. 363), Amsterdam [facs.]
!!!ENC: Fran Bennion   rev. 05/14/21 E Correia
!!!END: 2004/10/25
!!!ONB: Converted from MuseData with musedata2hum on Sat May 11 12:01:56 2024
!!!YEM: (C) 2004, 2019 Center for Computer Assisted Research in the Humanities
!!!system-decoration: [(s1,s2,s3)]
!!!URL-info: https://wiki.ccarh.org/wiki/MuseData:_Antonio_Vivaldi#Op._1:_Suonate_da_camera_a_tr.C3.A8.2C_due_violini_e_violone_o_cembalo Information about Vivaldi Op. 1 on the CCARH wiki
!!!URL-pdf: https://pdf.musedata.org/vivaldi-op01-no08.pdf#page=6 MuseData edition
!!!URL-pdf: https://s9.imslp.org/files/imglnks/usimg/1/18/IMSLP280399-PMLP10351-Vivaldi_Sonatas_Op_1_-_Violino_Primo.pdf#page=14 Violino primo part, Amsterdam: Estienne Roger, n.d.(ca.1723). Plate 363.
!!!URL-pdf: https://s9.imslp.org/files/imglnks/usimg/d/d5/IMSLP280400-PMLP10351-Vivaldi_Sonatas_Op_1_-_Violino_Secondo.pdf#page=11 Violino secondo part, Amsterdam: Estienne Roger, n.d.(ca.1723). Plate 363.
!!!URL-pdf: https://s9.imslp.org/files/imglnks/usimg/8/89/IMSLP280401-PMLP10351-Vivaldi_Sonatas_Op_1_-_Organo_e_Violoncello.pdf#page=12 Organo e Violoncello parts, Amsterdam: Estienne Roger, n.d.(ca.1723). Plate 363.
!!!URL-youtube: https://www.youtube.com/watch?v=P5HHPe_W6Uo&t=864s L'Arte dell'Arco
!!!title: @{OTL}, mov. @{OMV}
!!!filter-vcross: vcross
!!!EEV: 2024/05/11
!!!source-file: https://bitbucket.org/musedata/vivaldi/src/master/roger/op1/no08/stage2/04/01
!!!source-file: https://bitbucket.org/musedata/vivaldi/src/master/roger/op1/no08/stage2/04/02
!!!source-file: https://bitbucket.org/musedata/vivaldi/src/master/roger/op1/no08/stage2/04/03
!!!source-file: https://bitbucket.org/musedata/vivaldi/src/master/roger/op1/no08/stage2/04/04
